X:1
T:Title
%%score { ( 1 3 ) | ( 2 4 ) }
L:1/8
M:3/4
K:C
V:1 treble nm="Grand Piano"
V:3 treble 
V:2 bass 
V:4 bass 
V:1
 z2 z2[Q:1/4=100] [CE][DF] | [EG]2 [Ec]2 [Fd][Ec] | [EG]2 E2 CD | E3 E DC |[M:2/4] [B,G]4 | %5
[M:1/4] E[DF] |[M:3/4] [EG]2 [Ec]2 [FB][Gc] | d2 A2 Ac | B3 B AB |[M:2/4] [Ec]4 |[M:1/4] [Ec][Fd] | %11
[M:3/4] [Ge]3 [Fd] [Ec][FA] | [FA]2 [EG]2 Gc | [FB]-[DF-B-] [FB][GB] [CGc][Gd] |[M:2/4] [Ge]4 | %15
[M:1/4] [Ge][Fd] |[M:3/4] [Ec]3 [Fd] [Ec][FA] | [EG]2 [CE]2 [EG][Ec] | B3 d dd |[M:2/4] [Ec]4 |] %20
V:2
 z2 z2 [C,G,][C,G,] | [C,C]2 [C,G,]2 [C,G,][C,G,] | [C,C]2 [C,G,C]2 [E,G,][D,G,B,] | %3
 [C,G,C]3 [C,G,C] [C,F,C][C,E,] |[M:2/4] D,2 z2 |[M:1/4] [C,G,C][C,G,] | %6
[M:3/4] [C,C]2 [C,G,]2 [D,G,][E,G,] | [F,A,F]2 [F,DF]2 [F,DF][F,DF] | [G,DF]3 [G,DF] [G,DF][G,DF] | %9
[M:2/4][K:bass] [C,C]4 |[M:1/4] [C,G,][C,G,] |[M:3/4] [C,C]3 [C,G,] [C,G,][C,C] | %12
 [C,C]2 [C,C]2 EE | G,G, G,F, E,[D,B,] |[M:2/4] [C,C]C, C,2 |[M:1/4] [C,C][C,G,] | %16
[M:3/4] [C,G,]3 [C,G,] [C,G,][C,C] | [C,C]2 [C,G,]2 [C,C][C,C] | [G,DF]3 [G,B,F] [G,A,F][G,B,F] | %19
[M:2/4][K:bass] [C,C]4 |] %20
V:3
 x6 | x6 | x6 | x6 |[M:2/4] z2 G,2 |[M:1/4] x2 |[M:3/4] x6 | x6 | x6 |[M:2/4] x4 |[M:1/4] x2 | %11
[M:3/4] x6 | x6 | .D2 D2 z2 |[M:2/4] z C C2 |[M:1/4] x2 |[M:3/4] x6 | x6 | x6 |[M:2/4] x4 |] %20
V:4
 x6 | x6 | x6 | x6 |[M:2/4] G,,4 |[M:1/4] x2 |[M:3/4] x6 | x6 | x6 |[M:2/4][K:bass] x4 | %10
[M:1/4] x2 |[M:3/4] x6 | x6 | x6 |[M:2/4] x4 |[M:1/4] x2 |[M:3/4] x6 | x6 | x6 | %19
[M:2/4][K:bass] x4 |] %20

